X:1
T:Title
%%score { ( 1 3 ) | ( 2 4 ) }
L:1/8
Q:1/4=120
M:6/4
K:Eb
V:1 treble nm="Grand Piano"
V:3 treble 
V:2 bass 
V:4 bass 
V:1
 G3 _G =G2 B2 A2 G2 | [B,CG]6 [A,CF]6 | [CDA]3 [B,DG] [A,DF]2 [A,DF]2 [G,D=E]2 [A,DF]2 | [B,EG]12 | %4
w: I.~Allan~Sankey * * * * *||||
 [B,GB]3 [_Gc] [Fd]2 [Af]2 [=Ge]2 d2 | d6 c6 | [Dc]2 [EB]2 [E=A]2 [D_A]3 [B,DG] [A,DF]2 | [G,E]12 | %8
w: ||||
 [F,B,D]2[K:treble] [G,CE]2 [A,DF]2 [CDA]3 [B,DG] [A,DF]2 | E6 G6 | F2 G2 B2 =A3 B c2 | [DB]12 | %12
w: ||||
 e2 [_Gd]2 [Gc]2 [B,FB]3 [CEA] [_DE=G]2 | [CEc]6 [B,DF]6 | %14
w: ||
 [B,EB]2 [=B,EF]2 [B,EA]2 [_B,EG]2 [=A,CG]2 [_A,DF]2 | [G,E]12 |] %16
w: ||
V:2
 [E,B,E]3 [E,=A,E] [E,B,E]2 [E,DE]2 [E,CE]2 [E,B,E]2 | A,,6 A,,6 | B,,3 B,, B,,2 B,,2 B,,2 B,,2 | %3
 E,12 | E,3 [E,=A,] [E,_A,]2 [E,C]2 [E,B,]2[K:treble] [G,=B,F]2 | [A,=B,F]6[K:bass] [A,CE]6 | %6
 [B,,A,]2 [B,,G,]2 [B,,_G,]2 [B,,F,]3 B,, B,,2 | E,12 | B,,2 B,,2 B,,2 B,,3 B,, B,,2 | %9
 [E,G,]6 [E,B,E]6 | [F,B,D]2 [F,B,D]2 [F,DF]2 [F,CE]3 [F,G,E] [F,=A,E]2 | B,6 z6 | %12
 [E,G,E]2 [E,=A,]2 [E,A,]2 D,3 C, B,,2 | A,,6 A,,6 | G,,2 A,,2 F,,2 B,,2 B,,2 B,,2 | E,12 |] %16
V:3
 x12 | x12 | x12 | x12 | x12 | x12 | x12 | x12 | x2[K:treble] x10 | x12 | x12 | z6 .A,6 | x12 | %13
 x12 | x12 | x12 |] %16
V:4
 x12 | x12 | x12 | x12 | x10[K:treble] x2 | x6[K:bass] x6 | x12 | x12 | x12 | x12 | x12 | B,,12 | %12
 x12 | x12 | x12 | x12 |] %16

